icons/modern/yo-yo.svg

<svg width="32" height="32" viewBox="0 0 32 32" fill="none" xmlns="http://www.w3.org/2000/svg">
<path d="M17.875 29.7432C22.9836 29.7432 27.125 25.6018 27.125 20.4932C27.125 15.3845 22.9836 11.2432 17.875 11.2432H13.125V12.5543C10.4293 14.1707 8.625 17.1212 8.625 20.4932C8.625 23.8651 10.4293 26.8157 13.125 28.4321V29.7432H17.875Z" fill="url(#paint0_radial_18_3277)"/>
<path d="M17.875 29.7432C22.9836 29.7432 27.125 25.6018 27.125 20.4932C27.125 15.3845 22.9836 11.2432 17.875 11.2432H13.125V12.5543C10.4293 14.1707 8.625 17.1212 8.625 20.4932C8.625 23.8651 10.4293 26.8157 13.125 28.4321V29.7432H17.875Z" fill="url(#paint1_radial_18_3277)"/>
<path d="M16.2031 29.4618C21.3118 29.4618 25.4531 25.4464 25.4531 20.4933C25.4531 15.5402 21.3118 11.5249 16.2031 11.5249H13.125V12.7961C10.4293 14.3633 8.625 17.224 8.625 20.4933C8.625 23.7626 10.4293 26.6234 13.125 28.1906V29.4618H16.2031Z" fill="url(#paint2_radial_18_3277)"/>
<g filter="url(#filter0_i_18_3277)">
<path d="M18.7188 5.26659C19.6562 5.13117 21.8484 5.29626 23.1484 7.07126C24.7734 9.29001 23.6094 12.3681 20.3906 13.8369" stroke="#EBB240"/>
<path d="M18.7188 5.26659C19.6562 5.13117 21.8484 5.29626 23.1484 7.07126C24.7734 9.29001 23.6094 12.3681 20.3906 13.8369" stroke="url(#paint3_radial_18_3277)"/>
</g>
<path d="M15 29.7432C20.1086 29.7432 24.25 25.6018 24.25 20.4932C24.25 15.3845 20.1086 11.2432 15 11.2432H13.125V11.4333C8.91532 12.3 5.75 16.0269 5.75 20.4932C5.75 24.9594 8.91532 28.6863 13.125 29.553V29.7432H15Z" fill="url(#paint4_radial_18_3277)"/>
<path d="M15 29.7432C20.1086 29.7432 24.25 25.6018 24.25 20.4932C24.25 15.3845 20.1086 11.2432 15 11.2432H13.125V11.4333C8.91532 12.3 5.75 16.0269 5.75 20.4932C5.75 24.9594 8.91532 28.6863 13.125 29.553V29.7432H15Z" fill="url(#paint5_radial_18_3277)"/>
<circle cx="13.125" cy="20.4932" r="9.15625" fill="#FF8A8A" fill-opacity="0.5"/>
<g filter="url(#filter1_i_18_3277)">
<circle cx="16.418" cy="4.86426" r="2.46484" stroke="#EBB240"/>
<circle cx="16.418" cy="4.86426" r="2.46484" stroke="url(#paint6_radial_18_3277)"/>
</g>
<g filter="url(#filter2_f_18_3277)">
<circle cx="16.5786" cy="4.72168" r="2.46484" stroke="url(#paint7_linear_18_3277)" stroke-width="0.25"/>
</g>
<circle cx="13.125" cy="20.4932" r="9.25" fill="url(#paint8_radial_18_3277)"/>
<circle cx="13.125" cy="20.4932" r="9.25" fill="url(#paint9_radial_18_3277)"/>
<circle cx="13.125" cy="20.4932" r="9.25" fill="url(#paint10_radial_18_3277)"/>
<g filter="url(#filter3_ii_18_3277)">
<path fill-rule="evenodd" clip-rule="evenodd" d="M12.8672 27.1729C16.5563 27.1729 19.5469 24.1823 19.5469 20.4932C19.5469 16.8041 16.5563 13.8135 12.8672 13.8135C9.1781 13.8135 6.1875 16.8041 6.1875 20.4932C6.1875 24.1823 9.1781 27.1729 12.8672 27.1729ZM12.8672 25.8291C15.8141 25.8291 18.2031 23.4401 18.2031 20.4932C18.2031 17.5462 15.8141 15.1572 12.8672 15.1572C9.92023 15.1572 7.53125 17.5462 7.53125 20.4932C7.53125 23.4401 9.92023 25.8291 12.8672 25.8291Z" fill="#C78EFF"/>
</g>
<g filter="url(#filter4_i_18_3277)">
<circle cx="12.8665" cy="20.4933" r="5.3336" fill="#9369D3"/>
</g>
<g filter="url(#filter5_f_18_3277)">
<path d="M11.2789 18.7251C11.4201 18.7046 11.5404 18.6168 11.6132 18.4941C11.8186 18.1479 12.1168 17.6637 12.4023 17.2246C12.6248 16.8825 13.1096 16.8825 13.3321 17.2246C13.6139 17.6579 13.908 18.1353 14.1131 18.4805C14.1906 18.6109 14.3217 18.701 14.4721 18.7199C14.8982 18.7736 15.3982 18.8167 15.8432 18.9117C16.2735 19.0037 16.4436 19.4892 16.1614 19.8305C15.9199 20.1226 15.6491 20.4362 15.4151 20.7071C15.3069 20.8323 15.2066 20.9485 15.1207 21.0492C15.013 21.1755 14.979 21.3478 15.0244 21.5075C15.1858 22.0749 15.2998 22.5779 15.3714 22.9722C15.453 23.4215 15.0787 23.7008 14.6583 23.5339C14.0607 23.2967 13.4591 23.0239 13.0801 22.8478C12.945 22.7851 12.7894 22.7851 12.6543 22.8478C12.2753 23.0239 11.6737 23.2967 11.0761 23.5339C10.6556 23.7008 10.2814 23.4215 10.363 22.9722C10.4346 22.5779 10.5486 22.0749 10.71 21.5075C10.7554 21.3478 10.7214 21.1755 10.6136 21.0492C10.5277 20.9485 10.4275 20.8323 10.3193 20.7071C10.0853 20.4362 9.8145 20.1226 9.573 19.8305C9.29082 19.4892 9.46088 19.0037 9.89121 18.9117C10.3367 18.8166 10.8688 18.7845 11.2789 18.7251Z" fill="#8B60D0"/>
</g>
<g filter="url(#filter6_ii_18_3277)">
<path d="M11.2789 18.7251C11.4201 18.7046 11.5404 18.6168 11.6132 18.4941C11.8186 18.1479 12.1168 17.6637 12.4023 17.2246C12.6248 16.8825 13.1096 16.8825 13.3321 17.2246C13.6139 17.6579 13.908 18.1353 14.1131 18.4805C14.1906 18.6109 14.3217 18.701 14.4721 18.7199C14.8982 18.7736 15.3982 18.8167 15.8432 18.9117C16.2735 19.0037 16.4436 19.4892 16.1614 19.8305C15.9199 20.1226 15.6491 20.4362 15.4151 20.7071C15.3069 20.8323 15.2066 20.9485 15.1207 21.0492C15.013 21.1755 14.979 21.3478 15.0244 21.5075C15.1858 22.0749 15.2998 22.5779 15.3714 22.9722C15.453 23.4215 15.0787 23.7008 14.6583 23.5339C14.0607 23.2967 13.4591 23.0239 13.0801 22.8478C12.945 22.7851 12.7894 22.7851 12.6543 22.8478C12.2753 23.0239 11.6737 23.2967 11.0761 23.5339C10.6556 23.7008 10.2814 23.4215 10.363 22.9722C10.4346 22.5779 10.5486 22.0749 10.71 21.5075C10.7554 21.3478 10.7214 21.1755 10.6136 21.0492C10.5277 20.9485 10.4275 20.8323 10.3193 20.7071C10.0853 20.4362 9.8145 20.1226 9.573 19.8305C9.29082 19.4892 9.46088 19.0037 9.89121 18.9117C10.3367 18.8166 10.8688 18.7845 11.2789 18.7251Z" fill="#C08BF9"/>
</g>
<defs>
<filter id="filter0_i_18_3277" x="18.6473" y="4.73059" width="5.88044" height="9.56116" filterUnits="userSpaceOnUse" color-interpolation-filters="sRGB">
<feFlood flood-opacity="0" result="BackgroundImageFix"/>
<feBlend mode="normal" in="SourceGraphic" in2="BackgroundImageFix" result="shape"/>
<feColorMatrix in="SourceAlpha" type="matrix" values="0 0 0 0 0 0 0 0 0 0 0 0 0 0 0 0 0 0 127 0" result="hardAlpha"/>
<feOffset dx="0.15"/>
<feGaussianBlur stdDeviation="0.2"/>
<feComposite in2="hardAlpha" operator="arithmetic" k2="-1" k3="1"/>
<feColorMatrix type="matrix" values="0 0 0 0 0.85098 0 0 0 0 0.631373 0 0 0 0 0.266667 0 0 0 1 0"/>
<feBlend mode="normal" in2="shape" result="effect1_innerShadow_18_3277"/>
</filter>
<filter id="filter1_i_18_3277" x="13.4531" y="1.64941" width="6.17969" height="6.17969" filterUnits="userSpaceOnUse" color-interpolation-filters="sRGB">
<feFlood flood-opacity="0" result="BackgroundImageFix"/>
<feBlend mode="normal" in="SourceGraphic" in2="BackgroundImageFix" result="shape"/>
<feColorMatrix in="SourceAlpha" type="matrix" values="0 0 0 0 0 0 0 0 0 0 0 0 0 0 0 0 0 0 127 0" result="hardAlpha"/>
<feOffset dx="0.25" dy="-0.25"/>
<feGaussianBlur stdDeviation="0.2"/>
<feComposite in2="hardAlpha" operator="arithmetic" k2="-1" k3="1"/>
<feColorMatrix type="matrix" values="0 0 0 0 0.85098 0 0 0 0 0.631373 0 0 0 0 0.266667 0 0 0 1 0"/>
<feBlend mode="normal" in2="shape" result="effect1_innerShadow_18_3277"/>
</filter>
<filter id="filter2_f_18_3277" x="13.7387" y="1.88184" width="5.67969" height="5.67969" filterUnits="userSpaceOnUse" color-interpolation-filters="sRGB">
<feFlood flood-opacity="0" result="BackgroundImageFix"/>
<feBlend mode="normal" in="SourceGraphic" in2="BackgroundImageFix" result="shape"/>
<feGaussianBlur stdDeviation="0.125" result="effect1_foregroundBlur_18_3277"/>
</filter>
<filter id="filter3_ii_18_3277" x="5.7875" y="13.8135" width="14.1594" height="13.3594" filterUnits="userSpaceOnUse" color-interpolation-filters="sRGB">
<feFlood flood-opacity="0" result="BackgroundImageFix"/>
<feBlend mode="normal" in="SourceGraphic" in2="BackgroundImageFix" result="shape"/>
<feColorMatrix in="SourceAlpha" type="matrix" values="0 0 0 0 0 0 0 0 0 0 0 0 0 0 0 0 0 0 127 0" result="hardAlpha"/>
<feOffset dx="-0.6"/>
<feGaussianBlur stdDeviation="0.2"/>
<feComposite in2="hardAlpha" operator="arithmetic" k2="-1" k3="1"/>
<feColorMatrix type="matrix" values="0 0 0 0 0.74902 0 0 0 0 0.509804 0 0 0 0 0.980392 0 0 0 1 0"/>
<feBlend mode="normal" in2="shape" result="effect1_innerShadow_18_3277"/>
<feColorMatrix in="SourceAlpha" type="matrix" values="0 0 0 0 0 0 0 0 0 0 0 0 0 0 0 0 0 0 127 0" result="hardAlpha"/>
<feOffset dx="0.4"/>
<feGaussianBlur stdDeviation="0.2"/>
<feComposite in2="hardAlpha" operator="arithmetic" k2="-1" k3="1"/>
<feColorMatrix type="matrix" values="0 0 0 0 0.819608 0 0 0 0 0.619608 0 0 0 0 1 0 0 0 1 0"/>
<feBlend mode="normal" in2="effect1_innerShadow_18_3277" result="effect2_innerShadow_18_3277"/>
</filter>
<filter id="filter4_i_18_3277" x="7.53293" y="14.9097" width="10.9172" height="10.9172" filterUnits="userSpaceOnUse" color-interpolation-filters="sRGB">
<feFlood flood-opacity="0" result="BackgroundImageFix"/>
<feBlend mode="normal" in="SourceGraphic" in2="BackgroundImageFix" result="shape"/>
<feColorMatrix in="SourceAlpha" type="matrix" values="0 0 0 0 0 0 0 0 0 0 0 0 0 0 0 0 0 0 127 0" result="hardAlpha"/>
<feOffset dx="0.25" dy="-0.25"/>
<feGaussianBlur stdDeviation="0.25"/>
<feComposite in2="hardAlpha" operator="arithmetic" k2="-1" k3="1"/>
<feColorMatrix type="matrix" values="0 0 0 0 0.556863 0 0 0 0 0.388235 0 0 0 0 0.815686 0 0 0 1 0"/>
<feBlend mode="normal" in2="shape" result="effect1_innerShadow_18_3277"/>
</filter>
<filter id="filter5_f_18_3277" x="8.43445" y="15.968" width="8.86548" height="8.61462" filterUnits="userSpaceOnUse" color-interpolation-filters="sRGB">
<feFlood flood-opacity="0" result="BackgroundImageFix"/>
<feBlend mode="normal" in="SourceGraphic" in2="BackgroundImageFix" result="shape"/>
<feGaussianBlur stdDeviation="0.5" result="effect1_foregroundBlur_18_3277"/>
</filter>
<filter id="filter6_ii_18_3277" x="8.93445" y="16.668" width="7.66548" height="7.41462" filterUnits="userSpaceOnUse" color-interpolation-filters="sRGB">
<feFlood flood-opacity="0" result="BackgroundImageFix"/>
<feBlend mode="normal" in="SourceGraphic" in2="BackgroundImageFix" result="shape"/>
<feColorMatrix in="SourceAlpha" type="matrix" values="0 0 0 0 0 0 0 0 0 0 0 0 0 0 0 0 0 0 127 0" result="hardAlpha"/>
<feOffset dx="0.3" dy="-0.3"/>
<feGaussianBlur stdDeviation="0.4"/>
<feComposite in2="hardAlpha" operator="arithmetic" k2="-1" k3="1"/>
<feColorMatrix type="matrix" values="0 0 0 0 0.823529 0 0 0 0 0.631373 0 0 0 0 1 0 0 0 1 0"/>
<feBlend mode="normal" in2="shape" result="effect1_innerShadow_18_3277"/>
<feColorMatrix in="SourceAlpha" type="matrix" values="0 0 0 0 0 0 0 0 0 0 0 0 0 0 0 0 0 0 127 0" result="hardAlpha"/>
<feOffset dx="-0.5" dy="0.5"/>
<feGaussianBlur stdDeviation="0.375"/>
<feComposite in2="hardAlpha" operator="arithmetic" k2="-1" k3="1"/>
<feColorMatrix type="matrix" values="0 0 0 0 0.713726 0 0 0 0 0.47451 0 0 0 0 0.956863 0 0 0 1 0"/>
<feBlend mode="normal" in2="effect1_innerShadow_18_3277" result="effect2_innerShadow_18_3277"/>
</filter>
<radialGradient id="paint0_radial_18_3277" cx="0" cy="0" r="1" gradientUnits="userSpaceOnUse" gradientTransform="translate(26.5469 16.3369) rotate(145.355) scale(13.0404 13.1312)">
<stop stop-color="#A28ACF"/>
<stop offset="1" stop-color="#744EB1"/>
</radialGradient>
<radialGradient id="paint1_radial_18_3277" cx="0" cy="0" r="1" gradientUnits="userSpaceOnUse" gradientTransform="translate(17.875 20.7001) rotate(0.654505) scale(7.93784 9.05561)">
<stop offset="0.957057" stop-color="#734BAD"/>
<stop offset="0.98848" stop-color="#734BAD" stop-opacity="0"/>
</radialGradient>
<radialGradient id="paint2_radial_18_3277" cx="0" cy="0" r="1" gradientUnits="userSpaceOnUse" gradientTransform="translate(18.6587 27.7386) rotate(-48.4079) scale(11.9659 40.8915)">
<stop stop-color="#543A6E"/>
<stop offset="1" stop-color="#442662"/>
</radialGradient>
<radialGradient id="paint3_radial_18_3277" cx="0" cy="0" r="1" gradientUnits="userSpaceOnUse" gradientTransform="translate(20.6136 9.36575) rotate(-34.7788) scale(3.97411 6.23057)">
<stop offset="0.782148" stop-color="#FCCA60" stop-opacity="0"/>
<stop offset="1" stop-color="#FCCA60"/>
</radialGradient>
<radialGradient id="paint4_radial_18_3277" cx="0" cy="0" r="1" gradientUnits="userSpaceOnUse" gradientTransform="translate(23.6719 16.3369) rotate(144.794) scale(15.0689 13.7361)">
<stop stop-color="#B090E1"/>
<stop offset="1" stop-color="#8357C5"/>
</radialGradient>
<radialGradient id="paint5_radial_18_3277" cx="0" cy="0" r="1" gradientUnits="userSpaceOnUse" gradientTransform="translate(14.3594 20.4932) scale(8.34375 8.92433)">
<stop offset="0.89662" stop-color="#AF8CE6"/>
<stop offset="0.976143" stop-color="#AF8CE6" stop-opacity="0"/>
</radialGradient>
<radialGradient id="paint6_radial_18_3277" cx="0" cy="0" r="1" gradientUnits="userSpaceOnUse" gradientTransform="translate(12.679 7.0131) rotate(-22.1955) scale(4.8174 5.53739)">
<stop stop-color="#E9B443"/>
<stop offset="1" stop-color="#E9B443" stop-opacity="0"/>
</radialGradient>
<linearGradient id="paint7_linear_18_3277" x1="18.6738" y1="2.98102" x2="15.2482" y2="7.18652" gradientUnits="userSpaceOnUse">
<stop stop-color="#FDCD63"/>
<stop offset="0.185883" stop-color="#FDCD63" stop-opacity="0"/>
<stop offset="0.860358" stop-color="#FDCD63" stop-opacity="0"/>
<stop offset="1" stop-color="#FDCD63"/>
</linearGradient>
<radialGradient id="paint8_radial_18_3277" cx="0" cy="0" r="1" gradientUnits="userSpaceOnUse" gradientTransform="translate(10.7969 28.9619) rotate(-60.7143) scale(20.3152)">
<stop stop-color="#9268D7"/>
<stop offset="1" stop-color="#9469D5"/>
</radialGradient>
<radialGradient id="paint9_radial_18_3277" cx="0" cy="0" r="1" gradientUnits="userSpaceOnUse" gradientTransform="translate(12.7642 20.4932) scale(9.61084)">
<stop offset="0.966763" stop-color="#AB87E5" stop-opacity="0"/>
<stop offset="1" stop-color="#AB87E5"/>
</radialGradient>
<radialGradient id="paint10_radial_18_3277" cx="0" cy="0" r="1" gradientUnits="userSpaceOnUse" gradientTransform="translate(13.125 20.1494) rotate(90) scale(9.59375)">
<stop offset="0.964984" stop-color="#8653D0" stop-opacity="0"/>
<stop offset="1" stop-color="#8653D0"/>
</radialGradient>
</defs>
</svg>

<svg width="32" height="32" fill="none" xmlns="http://www.w3.org/2000/svg"><path d="M17.875 29.743a9.25 9.25 0 0 0 0-18.5h-4.75v1.311a9.245 9.245 0 0 0-4.5 7.94 9.245 9.245 0 0 0 4.5 7.938v1.311h4.75Z" fill="url(#a)"/><path d="M17.875 29.743a9.25 9.25 0 0 0 0-18.5h-4.75v1.311a9.245 9.245 0 0 0-4.5 7.94 9.245 9.245 0 0 0 4.5 7.938v1.311h4.75Z" fill="url(#b)"/><path d="M16.203 29.462c5.109 0 9.25-4.016 9.25-8.969 0-4.953-4.141-8.968-9.25-8.968h-3.078v1.271c-2.696 1.567-4.5 4.428-4.5 7.697 0 3.27 1.804 6.13 4.5 7.698v1.27h3.078Z" fill="url(#c)"/><g filter="url(#d)"><path d="M18.719 5.267c.937-.136 3.13.03 4.43 1.804 1.624 2.219.46 5.297-2.758 6.766" stroke="#EBB240"/><path d="M18.719 5.267c.937-.136 3.13.03 4.43 1.804 1.624 2.219.46 5.297-2.758 6.766" stroke="url(#e)"/></g><path d="M15 29.743a9.25 9.25 0 0 0 0-18.5h-1.875v.19c-4.21.867-7.375 4.594-7.375 9.06s3.165 8.193 7.375 9.06v.19H15Z" fill="url(#f)"/><path d="M15 29.743a9.25 9.25 0 0 0 0-18.5h-1.875v.19c-4.21.867-7.375 4.594-7.375 9.06s3.165 8.193 7.375 9.06v.19H15Z" fill="url(#g)"/><circle cx="13.125" cy="20.493" r="9.156" fill="#FF8A8A" fill-opacity=".5"/><g filter="url(#h)"><circle cx="16.418" cy="4.864" r="2.465" stroke="#EBB240"/><circle cx="16.418" cy="4.864" r="2.465" stroke="url(#i)"/></g><g filter="url(#j)"><circle cx="16.579" cy="4.722" r="2.465" stroke="url(#k)" stroke-width=".25"/></g><circle cx="13.125" cy="20.493" r="9.25" fill="url(#l)"/><circle cx="13.125" cy="20.493" r="9.25" fill="url(#m)"/><circle cx="13.125" cy="20.493" r="9.25" fill="url(#n)"/><g filter="url(#o)"><path fill-rule="evenodd" clip-rule="evenodd" d="M12.867 27.173a6.68 6.68 0 1 0 0-13.36 6.68 6.68 0 0 0 0 13.36Zm0-1.344a5.336 5.336 0 1 0 0-10.672 5.336 5.336 0 0 0 0 10.672Z" fill="#C78EFF"/></g><g filter="url(#p)"><circle cx="12.867" cy="20.493" r="5.334" fill="#9369D3"/></g><g filter="url(#q)"><path d="M11.279 18.725a.47.47 0 0 0 .334-.23c.206-.347.504-.831.79-1.27a.55.55 0 0 1 .93 0c.28.433.575.91.78 1.255a.49.49 0 0 0 .36.24c.425.054.925.097 1.37.192.43.092.6.577.318.919-.241.292-.512.605-.746.876a73.44 73.44 0 0 0-.294.342.496.496 0 0 0-.097.459c.162.567.276 1.07.347 1.464.082.45-.292.729-.713.562-.597-.237-1.199-.51-1.578-.686a.505.505 0 0 0-.426 0c-.379.176-.98.449-1.578.686-.42.167-.795-.112-.713-.562.072-.394.186-.897.347-1.465a.496.496 0 0 0-.096-.458l-.295-.342c-.234-.27-.505-.584-.746-.877a.559.559 0 0 1 .318-.918c.446-.095.978-.127 1.388-.187Z" fill="#8B60D0"/></g><g filter="url(#r)"><path d="M11.279 18.725a.47.47 0 0 0 .334-.23c.206-.347.504-.831.79-1.27a.55.55 0 0 1 .93 0c.28.433.575.91.78 1.255a.49.49 0 0 0 .36.24c.425.054.925.097 1.37.192.43.092.6.577.318.919-.241.292-.512.605-.746.876a73.44 73.44 0 0 0-.294.342.496.496 0 0 0-.097.459c.162.567.276 1.07.347 1.464.082.45-.292.729-.713.562-.597-.237-1.199-.51-1.578-.686a.505.505 0 0 0-.426 0c-.379.176-.98.449-1.578.686-.42.167-.795-.112-.713-.562.072-.394.186-.897.347-1.465a.496.496 0 0 0-.096-.458l-.295-.342c-.234-.27-.505-.584-.746-.877a.559.559 0 0 1 .318-.918c.446-.095.978-.127 1.388-.187Z" fill="#C08BF9"/></g><defs><radialGradient id="a" cx="0" cy="0" r="1" gradientUnits="userSpaceOnUse" gradientTransform="rotate(145.355 10.726 12.308) scale(13.0404 13.1312)"><stop stop-color="#A28ACF"/><stop offset="1" stop-color="#744EB1"/></radialGradient><radialGradient id="b" cx="0" cy="0" r="1" gradientUnits="userSpaceOnUse" gradientTransform="matrix(7.93732 .09067 -.10344 9.05502 17.875 20.7)"><stop offset=".957" stop-color="#734BAD"/><stop offset=".988" stop-color="#734BAD" stop-opacity="0"/></radialGradient><radialGradient id="c" cx="0" cy="0" r="1" gradientUnits="userSpaceOnUse" gradientTransform="matrix(7.94324 -8.94917 30.58233 27.14472 18.659 27.739)"><stop stop-color="#543A6E"/><stop offset="1" stop-color="#442662"/></radialGradient><radialGradient id="e" cx="0" cy="0" r="1" gradientUnits="userSpaceOnUse" gradientTransform="matrix(3.26418 -2.26687 3.55398 5.11754 20.614 9.366)"><stop offset=".782" stop-color="#FCCA60" stop-opacity="0"/><stop offset="1" stop-color="#FCCA60"/></radialGradient><radialGradient id="f" cx="0" cy="0" r="1" gradientUnits="userSpaceOnUse" gradientTransform="matrix(-12.31257 8.68749 -7.9191 -11.22355 23.672 16.337)"><stop stop-color="#B090E1"/><stop offset="1" stop-color="#8357C5"/></radialGradient><radialGradient id="g" cx="0" cy="0" r="1" gradientUnits="userSpaceOnUse" gradientTransform="matrix(8.34375 0 0 8.92433 14.36 20.493)"><stop offset=".897" stop-color="#AF8CE6"/><stop offset=".976" stop-color="#AF8CE6" stop-opacity="0"/></radialGradient><radialGradient id="i" cx="0" cy="0" r="1" gradientUnits="userSpaceOnUse" gradientTransform="rotate(-22.196 24.216 -28.813) scale(4.8174 5.53739)"><stop stop-color="#E9B443"/><stop offset="1" stop-color="#E9B443" stop-opacity="0"/></radialGradient><radialGradient id="l" cx="0" cy="0" r="1" gradientUnits="userSpaceOnUse" gradientTransform="rotate(-60.714 30.123 5.264) scale(20.3152)"><stop stop-color="#9268D7"/><stop offset="1" stop-color="#9469D5"/></radialGradient><radialGradient id="m" cx="0" cy="0" r="1" gradientUnits="userSpaceOnUse" gradientTransform="translate(12.764 20.493) scale(9.61084)"><stop offset=".967" stop-color="#AB87E5" stop-opacity="0"/><stop offset="1" stop-color="#AB87E5"/></radialGradient><radialGradient id="n" cx="0" cy="0" r="1" gradientUnits="userSpaceOnUse" gradientTransform="rotate(90 -3.512 16.637) scale(9.59375)"><stop offset=".965" stop-color="#8653D0" stop-opacity="0"/><stop offset="1" stop-color="#8653D0"/></radialGradient><filter id="d" x="18.647" y="4.731" width="5.88" height="9.561" filterUnits="userSpaceOnUse" color-interpolation-filters="sRGB"><feFlood flood-opacity="0" result="BackgroundImageFix"/><feBlend in="SourceGraphic" in2="BackgroundImageFix" result="shape"/><feColorMatrix in="SourceAlpha" values="0 0 0 0 0 0 0 0 0 0 0 0 0 0 0 0 0 0 127 0" result="hardAlpha"/><feOffset dx=".15"/><feGaussianBlur stdDeviation=".2"/><feComposite in2="hardAlpha" operator="arithmetic" k2="-1" k3="1"/><feColorMatrix values="0 0 0 0 0.85098 0 0 0 0 0.631373 0 0 0 0 0.266667 0 0 0 1 0"/><feBlend in2="shape" result="effect1_innerShadow_18_3277"/></filter><filter id="h" x="13.453" y="1.649" width="6.18" height="6.18" filterUnits="userSpaceOnUse" color-interpolation-filters="sRGB"><feFlood flood-opacity="0" result="BackgroundImageFix"/><feBlend in="SourceGraphic" in2="BackgroundImageFix" result="shape"/><feColorMatrix in="SourceAlpha" values="0 0 0 0 0 0 0 0 0 0 0 0 0 0 0 0 0 0 127 0" result="hardAlpha"/><feOffset dx=".25" dy="-.25"/><feGaussianBlur stdDeviation=".2"/><feComposite in2="hardAlpha" operator="arithmetic" k2="-1" k3="1"/><feColorMatrix values="0 0 0 0 0.85098 0 0 0 0 0.631373 0 0 0 0 0.266667 0 0 0 1 0"/><feBlend in2="shape" result="effect1_innerShadow_18_3277"/></filter><filter id="j" x="13.739" y="1.882" width="5.68" height="5.68" filterUnits="userSpaceOnUse" color-interpolation-filters="sRGB"><feFlood flood-opacity="0" result="BackgroundImageFix"/><feBlend in="SourceGraphic" in2="BackgroundImageFix" result="shape"/><feGaussianBlur stdDeviation=".125" result="effect1_foregroundBlur_18_3277"/></filter><filter id="o" x="5.787" y="13.813" width="14.159" height="13.359" filterUnits="userSpaceOnUse" color-interpolation-filters="sRGB"><feFlood flood-opacity="0" result="BackgroundImageFix"/><feBlend in="SourceGraphic" in2="BackgroundImageFix" result="shape"/><feColorMatrix in="SourceAlpha" values="0 0 0 0 0 0 0 0 0 0 0 0 0 0 0 0 0 0 127 0" result="hardAlpha"/><feOffset dx="-.6"/><feGaussianBlur stdDeviation=".2"/><feComposite in2="hardAlpha" operator="arithmetic" k2="-1" k3="1"/><feColorMatrix values="0 0 0 0 0.74902 0 0 0 0 0.509804 0 0 0 0 0.980392 0 0 0 1 0"/><feBlend in2="shape" result="effect1_innerShadow_18_3277"/><feColorMatrix in="SourceAlpha" values="0 0 0 0 0 0 0 0 0 0 0 0 0 0 0 0 0 0 127 0" result="hardAlpha"/><feOffset dx=".4"/><feGaussianBlur stdDeviation=".2"/><feComposite in2="hardAlpha" operator="arithmetic" k2="-1" k3="1"/><feColorMatrix values="0 0 0 0 0.819608 0 0 0 0 0.619608 0 0 0 0 1 0 0 0 1 0"/><feBlend in2="effect1_innerShadow_18_3277" result="effect2_innerShadow_18_3277"/></filter><filter id="p" x="7.533" y="14.91" width="10.917" height="10.917" filterUnits="userSpaceOnUse" color-interpolation-filters="sRGB"><feFlood flood-opacity="0" result="BackgroundImageFix"/><feBlend in="SourceGraphic" in2="BackgroundImageFix" result="shape"/><feColorMatrix in="SourceAlpha" values="0 0 0 0 0 0 0 0 0 0 0 0 0 0 0 0 0 0 127 0" result="hardAlpha"/><feOffset dx=".25" dy="-.25"/><feGaussianBlur stdDeviation=".25"/><feComposite in2="hardAlpha" operator="arithmetic" k2="-1" k3="1"/><feColorMatrix values="0 0 0 0 0.556863 0 0 0 0 0.388235 0 0 0 0 0.815686 0 0 0 1 0"/><feBlend in2="shape" result="effect1_innerShadow_18_3277"/></filter><filter id="q" x="8.434" y="15.968" width="8.865" height="8.615" filterUnits="userSpaceOnUse" color-interpolation-filters="sRGB"><feFlood flood-opacity="0" result="BackgroundImageFix"/><feBlend in="SourceGraphic" in2="BackgroundImageFix" result="shape"/><feGaussianBlur stdDeviation=".5" result="effect1_foregroundBlur_18_3277"/></filter><filter id="r" x="8.934" y="16.668" width="7.665" height="7.415" filterUnits="userSpaceOnUse" color-interpolation-filters="sRGB"><feFlood flood-opacity="0" result="BackgroundImageFix"/><feBlend in="SourceGraphic" in2="BackgroundImageFix" result="shape"/><feColorMatrix in="SourceAlpha" values="0 0 0 0 0 0 0 0 0 0 0 0 0 0 0 0 0 0 127 0" result="hardAlpha"/><feOffset dx=".3" dy="-.3"/><feGaussianBlur stdDeviation=".4"/><feComposite in2="hardAlpha" operator="arithmetic" k2="-1" k3="1"/><feColorMatrix values="0 0 0 0 0.823529 0 0 0 0 0.631373 0 0 0 0 1 0 0 0 1 0"/><feBlend in2="shape" result="effect1_innerShadow_18_3277"/><feColorMatrix in="SourceAlpha" values="0 0 0 0 0 0 0 0 0 0 0 0 0 0 0 0 0 0 127 0" result="hardAlpha"/><feOffset dx="-.5" dy=".5"/><feGaussianBlur stdDeviation=".375"/><feComposite in2="hardAlpha" operator="arithmetic" k2="-1" k3="1"/><feColorMatrix values="0 0 0 0 0.713726 0 0 0 0 0.47451 0 0 0 0 0.956863 0 0 0 1 0"/><feBlend in2="effect1_innerShadow_18_3277" result="effect2_innerShadow_18_3277"/></filter><linearGradient id="k" x1="18.674" y1="2.981" x2="15.248" y2="7.187" gradientUnits="userSpaceOnUse"><stop stop-color="#FDCD63"/><stop offset=".186" stop-color="#FDCD63" stop-opacity="0"/><stop offset=".86" stop-color="#FDCD63" stop-opacity="0"/><stop offset="1" stop-color="#FDCD63"/></linearGradient></defs></svg>
